X: 1
T: Norjalainen Sottiisi
O: trad. Finland
Z: 2013 John Chambers <jc:trillian.mit.edu>
M: 2/4
L: 1/16
K: Amix
"A"|:\
"A"ABcd eege | feec A2Ac | "G"B2G2 GBdB |\
[1,3 "A"c2AG A4 :|[2,4 "A"c2A2 A4 :|
"B"|:\
"A"{e}a2a2- aaba | "G"g2ed e3f |\
[1,3 "A"edcB cdea | "Em"g2ed e3g :|\
[2,4 "A"edcB "G"cBAG | "A"A2Ac A4 :|

%%sep 1 1 500

